build/img/catalog/email.svg

<svg width="22" height="15" viewBox="0 0 22 15" fill="none" xmlns="http://www.w3.org/2000/svg">
<g id="f96f0158-4c44-4625-b0fc-88b1246d40e5" clip-path="url(#clip0_556_341)">
<path id="Vector" d="M1.0957 0.126497C1.4014 0.0856821 1.70627 0.00988341 2.01196 0.00905045C7.05139 0.00127613 12.0905 -0.000390868 17.1294 0.0040516C17.8866 0.0040516 18.6429 -0.00760927 19.3992 0.00988295C19.6774 0.0165467 19.954 0.093179 20.283 0.142324C20.193 0.241446 20.1547 0.288925 20.1123 0.332239C17.4312 2.99772 14.7496 5.6657 12.0675 8.33618C11.4902 8.9101 10.8106 9.12417 10.0342 8.83596C9.7561 8.7299 9.50328 8.56675 9.29206 8.35701C6.58215 5.67931 3.87891 2.99411 1.18233 0.30142C1.15318 0.272266 1.12736 0.240613 1.09903 0.209794L1.0957 0.126497Z" fill="#D3D3D3"/>
<path id="Vector_2" d="M7.51914 8.36035C7.84066 8.68354 8.11638 8.96675 8.39792 9.24413C9.71067 10.5377 11.609 10.5394 12.9217 9.24413C13.2041 8.96675 13.4773 8.68104 13.7789 8.37451L20.2826 14.8366C20.0069 14.8966 19.7829 14.9483 19.5563 14.9924C19.4875 15.001 19.418 15.003 19.3489 14.9982C13.5609 14.9982 7.77292 14.9963 1.98493 14.9924C1.6884 14.9924 1.3927 14.9091 1.13281 14.8758L7.51914 8.36035Z" fill="#D3D3D3"/>
<path id="Vector_3" d="M6.51377 7.50336L0.21657 13.923L0.139938 13.9047C0.0932917 13.6506 0.0066637 13.3966 0.0066637 13.1417C-0.00222124 9.3828 -0.00222124 5.62308 0.0066637 1.86253C0.0066637 1.60765 0.0899599 1.35276 0.139938 1.09787L0.214904 1.07788L6.51377 7.50336Z" fill="#D3D3D3"/>
<path id="Vector_4" d="M14.8105 7.49744L21.1152 1.0603C21.2611 1.34492 21.3322 1.66193 21.3218 1.98156C21.3218 3.86128 21.3218 5.74128 21.3218 7.62155C21.3218 9.42575 21.3268 11.2291 21.316 13.0358C21.316 13.3265 21.2327 13.6189 21.1935 13.9079L21.1102 13.9271L14.8105 7.49744Z" fill="#D3D3D3"/>
</g>
<defs>
<clipPath id="clip0_556_341">
<rect width="21.3255" height="15" fill="white"/>
</clipPath>
</defs>
</svg>

<svg width="22" height="15" fill="none" xmlns="http://www.w3.org/2000/svg"><g id="f96f0158-4c44-4625-b0fc-88b1246d40e5" clip-path="url(#clip0_556_341)" fill="#D3D3D3"><path id="Vector" d="M1.096.126c.305-.04.61-.116.916-.117C7.052.001 12.091 0 17.129.004c.758 0 1.514-.012 2.27.006.278.007.555.083.884.132-.09.1-.128.147-.17.19-2.682 2.666-5.363 5.334-8.045 8.004-.578.574-1.257.788-2.034.5a2.13 2.13 0 01-.742-.479C6.582 5.679 3.88 2.994 1.182.301 1.153.272 1.127.241 1.1.21L1.096.126z"/><path id="Vector_2" d="M7.52 8.36c.32.324.596.607.878.884 1.313 1.294 3.211 1.295 4.524 0 .282-.277.555-.563.857-.87l6.504 6.463c-.276.06-.5.111-.727.155a1.024 1.024 0 01-.207.006c-5.788 0-11.576-.002-17.364-.006-.297 0-.592-.083-.852-.116L7.519 8.36z"/><path id="Vector_3" d="M6.514 7.503l-6.297 6.42-.077-.018c-.047-.254-.133-.508-.133-.763-.01-3.76-.01-7.519 0-11.28 0-.254.083-.51.133-.764l.075-.02 6.299 6.425z"/><path id="Vector_4" d="M14.81 7.497l6.305-6.437c.146.285.217.602.207.922v5.64c0 1.804.005 3.607-.006 5.414 0 .29-.083.583-.122.872l-.084.02-6.3-6.43z"/></g><defs><clipPath id="clip0_556_341"><path fill="#fff" d="M0 0h21.326v15H0z"/></clipPath></defs></svg>
